svg/file-icons/Config-Haskell.svg

<svg version="1.1" xmlns="http://www.w3.org/2000/svg" width="512px" height="512px"><path d="M184.7847137,471.5623779l76.9922943-115.4871521l-76.9922943-115.4871216h57.7435608l76.9922943,115.4871216l-76.9922943,115.4871521H184.7847137z M261.7770081,471.5623779l76.9923096-115.4871521l-76.9923096-115.4871216h57.7435608L473.502533,471.5623779h-57.7435608l-48.1178894-72.1781311l-48.1205139,72.1781311H261.7770081z M447.8401794,404.1957703l-25.662323-38.494812L512,365.6983032v38.497467H447.8401794z M409.3453674,346.4522095l-25.664978-38.4948425L512,307.9547119v38.4974976H409.3453674z M169.0283508,176.5386047c50.8809052-29.3175659,112.0814209-6.2261963,135.3441772,41.4452057h65.8023987c-3.1994629-11.6925201-7.6811218-22.7460938-13.2781982-33.0336761l35.4750366-62.993454l-35.3576355-35.3576431l-62.4001465,35.6540833c-10.0291443-5.6127167-20.6523743-10.1644287-31.6786804-13.5394363l-18.869278-68.2760468h-50.0899811l-18.3372803,66.8742371c-11.7279205,3.2257462-23.3550415,7.903244-34.6914215,14.1426392L81.519043,88.0722504l-35.3576393,35.3577042l32.9759254,58.9558792c-6.2110977,11.1132812-10.9721527,22.8607635-14.300827,34.9477081L0,236.378006v50.0900421l65.1849594,17.7065125c3.420784,12.0266113,8.2859879,23.6984863,14.5720749,34.7373047L47.634613,398.9250488l35.3576431,35.3576355l59.414299-34.7086487c8.6871338,4.6682739,29.8053741,12.9867554,48.1287842,18.2994385l41.0319061-61.7980347C130.2881927,370.4910583,75.4882584,230.4363861,169.0283508,176.5386047z"/></svg>

<svg xmlns="http://www.w3.org/2000/svg" width="512" height="512"><path d="m184.785 471.562 76.992-115.487-76.992-115.487h57.743l76.993 115.487-76.993 115.487h-57.743zm76.992 0 76.992-115.487-76.992-115.487h57.744l153.982 230.974h-57.744l-48.118-72.178-48.12 72.178h-57.744zm186.063-67.366L422.178 365.7l89.822-.003v38.498h-64.16zm-38.495-57.744-25.665-38.495 128.32-.002v38.497H409.345zM169.028 176.54c50.881-29.318 112.082-6.227 135.345 41.445h65.802a154.223 154.223 0 0 0-13.278-33.034l35.475-62.993L357.014 86.6l-62.4 35.654a161.966 161.966 0 0 0-31.679-13.54l-18.869-68.275h-50.09l-18.337 66.874c-11.728 3.226-23.355 7.903-34.692 14.143L81.52 88.072 46.161 123.43l32.976 58.956c-6.21 11.113-10.972 22.86-14.3 34.948L0 236.378v50.09l65.185 17.707a156.965 156.965 0 0 0 14.572 34.737l-32.122 60.013 35.357 35.358 59.415-34.709c8.687 4.668 29.805 12.987 48.128 18.3l41.032-61.799C130.288 370.491 75.488 230.436 169.028 176.54z"/></svg>
